X: 2728
T:O'er The Hills & Far Away. HSJJ.175
M:4/4
L:1/8
S:HSJ Jackson,Wyresdale,Lancs.1823
R:Air
O:England
A:Lancashire
H:1823
Z:Chris Partington.
K:G
DE|G3A GABA|G2E2E2DE|G3A GABG|B2A2A2DE|G3A GABA|G2E2~c4|!E2D2DEGA|B2A2A2
:|
|:Bc|d3e dcBA|G2E2E2Bc|d3e dBAG|B2A2A2Bc|!d3e dcBA|G2E2c4|E2D2 DEFG|B2A2
A2:|
|:DE|GABA GABA|!G2E2E2DE|GABA GABG|B2A2A2DE|GABA GABG|AGFE~c4|!D2D2DEGA|
B2A2A2:|
|:Bc|dgfe dBAB|G2E2E2Bc|dgfe dBAG|!B2A2A2Bc|dgfe dcBA|G2E2~c4|E2D2DEGA|B
2A2A2:|]
